public/library/etherscan-text-dark.svg

<svg width="536" height="122" viewBox="0 0 536 122" fill="none" xmlns="http://www.w3.org/2000/svg">
<g clip-path="url(#clip0_3340_1171)">
<mask id="mask0_3340_1171" style="mask-type:luminance" maskUnits="userSpaceOnUse" x="0" y="0" width="536" height="122">
<path d="M535.015 0H0V121.639H535.015V0Z" fill="white"/>
</mask>
<g mask="url(#mask0_3340_1171)">
<path d="M158.247 39.4471V56.2411H178.647V63.1471H158.247V80.3341H181.006V87.6341H149.301V32.2341H181.001V39.4541L158.247 39.4471ZM211.455 79.8591V87.6281H205.961C201.357 87.6281 197.865 86.5164 195.484 84.2931C193.103 82.0697 191.913 78.3694 191.914 73.1921V52.0031H185.714V44.3911H191.914V33.6401H200.939V44.3911H211.376V52.0031H200.939V73.3491C200.939 75.8077 201.397 77.5077 202.312 78.4491C203.227 79.3904 204.836 79.8604 207.138 79.8591H211.455ZM244.023 43.6851C249.046 43.6851 253.074 45.3071 256.108 48.5511C259.142 51.7951 260.659 56.4251 260.66 62.4411V87.6321H251.714V63.3831C251.714 59.5117 250.72 56.5164 248.732 54.3971C247.675 53.3189 246.4 52.478 244.993 51.9301C243.586 51.3822 242.078 51.1398 240.57 51.2191C238.984 51.1493 237.401 51.4175 235.926 52.0061C234.451 52.5947 233.118 53.4902 232.016 54.6331C229.871 56.9091 228.798 60.2444 228.798 64.6391V87.6321H219.852V29.5591H228.798V53.8871C229.832 50.7945 231.878 48.1405 234.605 46.3531C237.41 44.5496 240.689 43.6209 244.023 43.6851ZM311.278 63.9321C311.293 65.2207 311.188 66.5079 310.964 67.7771H277.689C277.846 72.2244 279.075 75.5204 281.377 77.6651C283.696 79.8174 286.768 80.973 289.931 80.8831C292.636 80.9679 295.294 80.1689 297.504 78.6071C299.518 77.1719 300.886 75.0007 301.31 72.5641H310.884C310.348 75.5095 309.11 78.2823 307.274 80.6471C305.383 83.0485 302.931 84.9485 300.133 86.1801C297.046 87.5467 293.699 88.229 290.323 88.1801C286.456 88.2566 282.633 87.3378 279.223 85.5121C276.007 83.7354 273.377 81.0637 271.65 77.8211C269.746 74.1674 268.801 70.09 268.903 65.9711C268.806 61.8777 269.752 57.8269 271.65 54.1991C273.377 50.9565 276.007 48.2847 279.223 46.5081C282.633 44.6823 286.456 43.7636 290.323 43.8401C294.187 43.751 298.009 44.6563 301.423 46.4691C304.496 48.1293 307.029 50.6347 308.723 53.6891C310.444 56.8258 311.324 60.3545 311.277 63.9321H311.278ZM302.253 63.6971C302.436 61.2416 301.933 58.7837 300.801 56.5971C299.809 54.7645 298.273 53.2841 296.406 52.3591C294.513 51.4354 292.43 50.9653 290.324 50.9861C287.089 50.8863 283.941 52.0391 281.535 54.2041C279.181 56.3494 277.899 59.5161 277.69 63.7041L302.253 63.6971ZM328.853 52.8671C330.276 50.0866 332.451 47.7617 335.131 46.1571C337.98 44.4747 341.24 43.6187 344.548 43.6851V53.4161H341.88C337.956 53.4161 334.804 54.3707 332.424 56.2801C330.044 58.1894 328.856 61.3418 328.861 65.7371V87.6371H319.915V44.3911H328.861L328.853 52.8671ZM365.423 43.8421C370.498 43.8421 374.564 45.1371 377.623 47.7271C380.718 50.3783 382.718 54.0847 383.234 58.1271H374.761C374.477 55.9268 373.404 53.9046 371.74 52.4371C369.898 50.9313 367.563 50.1623 365.187 50.2791C363.309 50.1589 361.452 50.7313 359.968 51.8881C359.355 52.4304 358.872 53.103 358.552 53.8566C358.233 54.6102 358.087 55.4256 358.124 56.2431C358.099 56.8564 358.205 57.4679 358.435 58.037C358.665 58.606 359.014 59.1195 359.458 59.5431C360.42 60.4234 361.556 61.0918 362.793 61.5051C364.662 62.1256 366.561 62.6496 368.483 63.0751C371.163 63.6427 373.799 64.4033 376.37 65.3511C378.384 66.1358 380.166 67.4185 381.549 69.0791C383.08 71.0594 383.846 73.5249 383.707 76.0241C383.752 77.7087 383.403 79.3805 382.687 80.9063C381.972 82.4322 380.911 83.7699 379.587 84.8131C376.84 87.0631 373.14 88.1881 368.487 88.1881C363.098 88.1881 358.743 86.9324 355.421 84.4211C353.767 83.1603 352.383 81.5795 351.352 79.7729C350.321 77.9663 349.665 75.9707 349.421 73.9051H358.132C358.236 75.0238 358.568 76.1093 359.108 77.0946C359.648 78.08 360.384 78.9442 361.271 79.6341C363.351 81.1798 365.902 81.9572 368.491 81.8341C370.332 81.9392 372.143 81.3356 373.553 80.1471C374.153 79.609 374.628 78.9466 374.946 78.206C375.264 77.4655 375.416 76.6646 375.393 75.8591C375.426 75.1917 375.317 74.5249 375.074 73.9026C374.83 73.2803 374.457 72.7168 373.98 72.2491C372.963 71.3147 371.759 70.6058 370.449 70.1691C368.546 69.541 366.607 69.03 364.642 68.6391C362.049 68.0644 359.494 67.3296 356.991 66.4391C355.033 65.7094 353.301 64.478 351.968 62.8681C350.494 60.9527 349.755 58.5717 349.888 56.1581C349.84 54.456 350.187 52.7659 350.901 51.2204C351.616 49.675 352.68 48.3163 354.008 47.2511C356.755 44.9784 360.561 43.8421 365.426 43.8421H365.423ZM411.881 43.8421C417.481 43.8421 422.111 45.3201 425.771 48.2761C429.471 51.2977 431.907 55.5949 432.598 60.3221H423.098C422.686 57.7837 421.326 55.4964 419.292 53.9221C417.099 52.3219 414.432 51.5065 411.719 51.6071C410.104 51.5684 408.499 51.8737 407.01 52.5028C405.522 53.132 404.185 54.0705 403.087 55.2561C400.785 57.6888 399.634 61.2594 399.634 65.9681C399.634 70.6767 400.785 74.2604 403.087 76.7191C404.179 77.9147 405.514 78.8625 407.003 79.4987C408.492 80.1349 410.1 80.4446 411.719 80.4071C414.44 80.5112 417.115 79.6828 419.301 78.0591C421.33 76.4656 422.688 74.1696 423.107 71.6241H432.607C431.91 76.3601 429.477 80.6677 425.78 83.7091C422.118 86.6911 417.488 88.1821 411.89 88.1821C408.023 88.2586 404.2 87.3398 400.79 85.5141C397.574 83.7374 394.944 81.0657 393.217 77.8231C391.309 74.1699 390.361 70.0921 390.461 65.9721C390.364 61.8787 391.31 57.8279 393.208 54.2001C394.935 50.9575 397.565 48.2857 400.781 46.5091C404.193 44.683 408.016 43.7646 411.885 43.8421H411.881ZM458.575 43.8421C462.144 43.7367 465.656 44.7508 468.62 46.7421C471.347 48.6177 473.408 51.3108 474.506 54.4331V44.3911H483.452V87.6321H474.506V77.5871C473.408 80.7094 471.347 83.4024 468.62 85.2781C465.656 87.2694 462.144 88.2834 458.575 88.1781C455.032 88.2378 451.541 87.3143 448.491 85.5101C445.481 83.672 443.069 81.0004 441.546 77.8191C439.795 74.1195 438.935 70.061 439.035 65.9691C438.94 61.9027 439.8 57.8708 441.546 54.1971C443.069 51.0157 445.481 48.3442 448.491 46.5061C451.543 44.7026 455.035 43.7804 458.579 43.8421H458.575ZM461.322 51.6901C459.553 51.6103 457.788 51.9085 456.144 52.5648C454.5 53.2211 453.014 54.2204 451.787 55.4961C449.406 58.0334 448.216 61.5258 448.216 65.9731C448.216 70.4204 449.407 73.9124 451.79 76.4491C453.017 77.7255 454.502 78.7256 456.147 79.3826C457.791 80.0396 459.556 80.3384 461.325 80.2591C463.694 80.2967 466.027 79.686 468.074 78.4931C470.076 77.3016 471.707 75.5762 472.783 73.5101C473.978 71.1819 474.571 68.5921 474.51 65.9761C474.562 63.3735 473.969 60.7985 472.783 58.4811C471.715 56.3984 470.084 54.6578 468.074 53.4581C466.028 52.2641 463.694 51.6524 461.325 51.6891L461.322 51.6901ZM518.375 43.6901C523.398 43.6901 527.426 45.3121 530.46 48.5561C533.494 51.8001 535.011 56.4301 535.012 62.4461V87.6321H526.066V63.3831C526.066 59.5117 525.072 56.5164 523.084 54.3971C522.027 53.319 520.752 52.4781 519.345 51.9302C517.938 51.3823 516.43 51.1399 514.922 51.2191C513.336 51.1493 511.753 51.4175 510.278 52.0061C508.803 52.5947 507.47 53.4902 506.368 54.6331C504.223 56.9091 503.15 60.2444 503.15 64.6391V87.6321H494.204V44.3911H503.15V53.8911C504.184 50.7985 506.23 48.1445 508.957 46.3571C511.763 44.5516 515.042 43.6215 518.378 43.6851L518.375 43.6901Z" fill="white"/>
<path d="M25.29 57.9139C25.2901 57.2347 25.4244 56.5623 25.6851 55.9352C25.9458 55.308 26.3278 54.7386 26.8092 54.2595C27.2907 53.7804 27.8619 53.4011 28.4903 53.1434C29.1187 52.8858 29.7918 52.7548 30.471 52.7579L39.061 52.7859C40.4305 52.7859 41.744 53.33 42.7124 54.2984C43.6809 55.2669 44.225 56.5803 44.225 57.9499V90.4299C45.192 90.1429 46.434 89.8369 47.793 89.5169C48.737 89.2952 49.5783 88.761 50.1805 88.0009C50.7826 87.2409 51.1102 86.2996 51.11 85.3299V45.0399C51.11 43.6702 51.654 42.3567 52.6224 41.3881C53.5908 40.4195 54.9043 39.8752 56.274 39.8749H64.881C66.2506 39.8752 67.5641 40.4195 68.5325 41.3881C69.5009 42.3567 70.045 43.6702 70.045 45.0399V82.4329C70.045 82.4329 72.2 81.5609 74.299 80.6749C75.0787 80.3452 75.7441 79.7931 76.2122 79.0877C76.6803 78.3822 76.9302 77.5545 76.931 76.7079V32.1299C76.931 30.7605 77.4749 29.4472 78.4431 28.4788C79.4113 27.5103 80.7245 26.9662 82.0939 26.9659H90.701C92.0706 26.9659 93.384 27.51 94.3525 28.4784C95.3209 29.4468 95.865 30.7603 95.865 32.1299V68.8389C103.327 63.4309 110.889 56.9269 116.89 49.1059C117.761 47.9707 118.337 46.6377 118.567 45.2257C118.797 43.8138 118.674 42.3668 118.209 41.0139C115.431 33.0217 111.016 25.6973 105.245 19.5096C99.474 13.3218 92.4749 8.40687 84.6955 5.07934C76.9161 1.75182 68.5277 0.0849617 60.0671 0.185439C51.6065 0.285917 43.2601 2.15152 35.562 5.66286C27.8638 9.17419 20.9834 14.2539 15.3611 20.577C9.73881 26.9001 5.49842 34.3272 2.91131 42.3832C0.324207 50.4391 -0.552649 58.9464 0.336851 67.3607C1.22635 75.775 3.86263 83.911 8.07696 91.2479C8.81111 92.5135 9.89118 93.5434 11.1903 94.2165C12.4894 94.8896 13.9536 95.178 15.411 95.0479C17.039 94.9049 19.066 94.7019 21.476 94.4189C22.5251 94.2998 23.4937 93.7989 24.1972 93.0116C24.9008 92.2244 25.2901 91.2058 25.291 90.1499L25.29 57.9139Z" fill="white"/>
<path d="M25.1021 110.009C34.1744 116.609 44.8959 120.571 56.0802 121.456C67.2646 122.34 78.4757 120.114 88.4731 115.022C98.4705 109.93 106.864 102.172 112.726 92.6059C118.587 83.0395 121.688 72.0381 121.685 60.8188C121.685 59.4188 121.62 58.0337 121.527 56.6567C99.308 89.7947 58.2831 105.287 25.104 110.004" fill="#8B8B8B"/>
</g>
</g>
<defs>
<clipPath id="clip0_3340_1171">
<rect width="536" height="122" fill="white"/>
</clipPath>
</defs>
</svg>

<svg xmlns="http://www.w3.org/2000/svg" width="536" height="122" fill="none" viewBox="0 0 536 122"><g clip-path="url(#a)"><mask id="b" width="536" height="122" x="0" y="0" maskUnits="userSpaceOnUse" style="mask-type:luminance"><path fill="#fff" d="M535.015 0H0v121.639h535.015z"/></mask><g mask="url(#b)"><path fill="#fff" d="M158.247 39.447v16.794h20.4v6.906h-20.4v17.187h22.759v7.3h-31.705v-55.4h31.7v7.22zm53.208 40.412v7.77h-5.494q-6.906 0-10.477-3.336t-3.57-11.1v-21.19h-6.2v-7.612h6.2v-10.75h9.025v10.75h10.437v7.612h-10.437V73.35q0 3.689 1.373 5.1 1.373 1.412 4.826 1.41zm32.568-36.174q7.534 0 12.085 4.866 4.55 4.866 4.552 13.89v25.191h-8.946V63.383q0-5.807-2.982-8.986a10.65 10.65 0 0 0-8.162-3.178 11.2 11.2 0 0 0-8.554 3.414q-3.218 3.414-3.218 10.006v22.993h-8.946V29.56h8.946v24.328a14.5 14.5 0 0 1 5.807-7.534 16.8 16.8 0 0 1 9.418-2.668m67.255 20.247a20.7 20.7 0 0 1-.314 3.845h-33.275q.235 6.67 3.688 9.888a12.07 12.07 0 0 0 8.554 3.218 12.45 12.45 0 0 0 7.573-2.276 9.4 9.4 0 0 0 3.806-6.043h9.574a18.6 18.6 0 0 1-3.61 8.083 18.66 18.66 0 0 1-7.141 5.533 23.4 23.4 0 0 1-9.81 2 22.6 22.6 0 0 1-11.1-2.668 19 19 0 0 1-7.573-7.69 24.34 24.34 0 0 1-2.747-11.85 24.16 24.16 0 0 1 2.747-11.773 19 19 0 0 1 7.573-7.69 22.6 22.6 0 0 1 11.1-2.669 22.56 22.56 0 0 1 11.1 2.63 18.3 18.3 0 0 1 7.3 7.22 20.7 20.7 0 0 1 2.554 10.242zm-9.025-.235a13.3 13.3 0 0 0-1.452-7.1 10.1 10.1 0 0 0-4.395-4.238 13.6 13.6 0 0 0-6.082-1.373 12.56 12.56 0 0 0-8.789 3.218q-3.531 3.218-3.845 9.5zm26.6-10.83a16.67 16.67 0 0 1 6.278-6.71 17.8 17.8 0 0 1 9.417-2.472v9.731h-2.668q-5.886 0-9.456 2.864-3.57 2.865-3.563 9.457v21.9h-8.946V44.391h8.946zm36.57-9.025q7.612 0 12.2 3.885a16.43 16.43 0 0 1 5.611 10.4h-8.473a9.15 9.15 0 0 0-3.021-5.69 9.6 9.6 0 0 0-6.553-2.158 7.7 7.7 0 0 0-5.219 1.61 5.486 5.486 0 0 0-1.844 4.355 4.32 4.32 0 0 0 1.334 3.3 9.3 9.3 0 0 0 3.335 1.961 58 58 0 0 0 5.69 1.57 57 57 0 0 1 7.887 2.276 12.8 12.8 0 0 1 5.179 3.728 10.4 10.4 0 0 1 2.158 6.945 10.8 10.8 0 0 1-1.02 4.882 10.8 10.8 0 0 1-3.1 3.907q-4.12 3.375-11.1 3.375-8.083 0-13.066-3.767a15.51 15.51 0 0 1-6-10.516h8.711a8.22 8.22 0 0 0 3.139 5.73 11.2 11.2 0 0 0 7.22 2.2 7.22 7.22 0 0 0 5.062-1.688 5.55 5.55 0 0 0 1.84-4.288 4.74 4.74 0 0 0-1.413-3.61 9.8 9.8 0 0 0-3.531-2.08 49 49 0 0 0-5.807-1.53 64 64 0 0 1-7.651-2.2 11.93 11.93 0 0 1-5.023-3.57 10.1 10.1 0 0 1-2.08-6.71 11.023 11.023 0 0 1 4.12-8.907q4.12-3.41 11.418-3.41zm46.458 0q8.4 0 13.89 4.434a19.13 19.13 0 0 1 6.827 12.046h-9.5a10.15 10.15 0 0 0-3.806-6.4 12.1 12.1 0 0 0-7.573-2.315 11.4 11.4 0 0 0-8.632 3.65q-3.453 3.648-3.453 10.711t3.453 10.751a11.34 11.34 0 0 0 8.632 3.688 11.95 11.95 0 0 0 7.582-2.348 10.3 10.3 0 0 0 3.806-6.435h9.5a19.28 19.28 0 0 1-6.827 12.085q-5.493 4.473-13.89 4.473a22.6 22.6 0 0 1-11.1-2.668 19 19 0 0 1-7.573-7.69 24.3 24.3 0 0 1-2.756-11.852 24.16 24.16 0 0 1 2.747-11.772 19 19 0 0 1 7.573-7.69 22.6 22.6 0 0 1 11.104-2.668zm46.694 0a17.1 17.1 0 0 1 10.045 2.9 15.63 15.63 0 0 1 5.886 7.691V44.391h8.946v43.241h-8.946V77.587a15.63 15.63 0 0 1-5.886 7.691 17.1 17.1 0 0 1-10.045 2.9 19.17 19.17 0 0 1-10.084-2.668 18.24 18.24 0 0 1-6.945-7.69 26.2 26.2 0 0 1-2.511-11.85 26 26 0 0 1 2.511-11.773 18.24 18.24 0 0 1 6.945-7.69 19.17 19.17 0 0 1 10.088-2.665zm2.747 7.848a12.45 12.45 0 0 0-9.535 3.806q-3.571 3.806-3.571 10.477t3.574 10.476a12.45 12.45 0 0 0 9.535 3.81 13 13 0 0 0 6.749-1.766 12.54 12.54 0 0 0 4.709-4.983 15.7 15.7 0 0 0 1.727-7.534 15.76 15.76 0 0 0-1.727-7.495 12.5 12.5 0 0 0-4.709-5.023 13 13 0 0 0-6.749-1.769zm57.053-8q7.534 0 12.085 4.866 4.55 4.866 4.552 13.89v25.186h-8.946V63.383q0-5.807-2.982-8.986a10.65 10.65 0 0 0-8.162-3.178 11.2 11.2 0 0 0-8.554 3.414q-3.218 3.414-3.218 10.006v22.993h-8.946v-43.24h8.946v9.5a14.5 14.5 0 0 1 5.807-7.535 16.8 16.8 0 0 1 9.421-2.672zM25.29 57.914a5.156 5.156 0 0 1 5.181-5.156l8.59.028a5.164 5.164 0 0 1 5.164 5.164v32.48c.967-.287 2.209-.593 3.568-.913a4.3 4.3 0 0 0 3.317-4.187V45.04a5.165 5.165 0 0 1 5.164-5.165h8.607a5.165 5.165 0 0 1 5.164 5.165v37.393s2.155-.872 4.254-1.758a4.31 4.31 0 0 0 2.632-3.967V32.13a5.164 5.164 0 0 1 5.163-5.164H90.7a5.164 5.164 0 0 1 5.164 5.164v36.709c7.462-5.408 15.024-11.912 21.025-19.733a8.66 8.66 0 0 0 1.319-8.092A60.79 60.79 0 0 0 15.361 20.577a60.79 60.79 0 0 0-7.284 70.67 7.69 7.69 0 0 0 7.334 3.8c1.628-.142 3.655-.345 6.065-.628a4.3 4.3 0 0 0 3.815-4.27z"/><path fill="#8b8b8b" d="M25.102 110.009a60.81 60.81 0 0 0 63.371 5.013 60.82 60.82 0 0 0 33.212-54.203c0-1.4-.065-2.785-.158-4.162-22.219 33.138-63.244 48.63-96.423 53.347"/></g></g><defs><clipPath id="a"><path fill="#fff" d="M0 0h536v122H0z"/></clipPath></defs></svg>
